X:1
T: Lord Breadalbane's March
C:
R:Jig
Q:180
K:D
M:6/8
L:1/16
|:A3BA2 f3ed2|B3AB2 d2B2A2|A3BA2 f3ed2|A3ee2 e4d2|
A3BA2 f3ed2|e3dB2 e3BA2|A3BA2 f3ed2|A3efe e4d2:|
|:e3fe2 a3fe2|z3ez2 z3ed2|e3fe2 a3fd2|e3fe2 e4d2|
e3fe2 a3fe2|f3ef2 f3ed2|a3fe2 f3ed2|A3ee2 e4d2:|
 e3AA2 f3AA2|B3AA2 d3GG2|A3BA2 e3AA2|B3AA2 e3AA2|
 d3AA2 f3AA2|B3AA2 d3GA2|A3BA2 f3AA2|B3AA2 e4d2|
 e3AA2 a3AA2|e3AA2 f3AA2|e3AA2 a3AA2|B3AA2 e4d2|
 e3AA2 a3AA2|f3AA2 e3AA2|a3AA2 f3AA2|d3AA2 e4d2||
